; generated by Slic3r 0.9.10b on 2013-11-14 at 15:08:06

; layer_height = 0.35
; perimeters = 3
; top_solid_layers = 3
; bottom_solid_layers = 3
; fill_density = 0.4
; perimeter_speed = 30
; infill_speed = 60
; travel_speed = 130
; nozzle_diameter = 0.35
; filament_diameter = 1.75
; extrusion_multiplier = 0.98
; perimeters extrusion width = 0.37mm
; infill extrusion width = 0.37mm
; solid infill extrusion width = 0.37mm
; top infill extrusion width = 0.37mm
; first layer extrusion width = 0.70mm

G21 ; set units to millimeters
M107
M140 S105 ; set bed temp, don't wait
M104 S240,240 ; set heater temp, don't wait
G0 X10 Y10 Z10 F7000
G28 X0 Y0
G0 Z3 F300
G0 Z0 F75
M190 S105 ; wait for bed temp
M109 S240,240 ; set heater temp and wait
M908 P3 S110 ; set motor current to a safe level. In the next host release we'll remove this command from startgcode
G92 E0 ; reset extruder length
G90 ; use absolute coordinates
M83 ; use relative distances for extrusion
T0
G1 Z0.350 F7800.000
G1 F1800.000 E-2.00000
G1 X76.800 Y76.770 F7800.000
G1 F1800.000 E2.00000
G1 X77.480 Y76.140 F540.000 E0.08260
G1 X77.990 Y75.710 E0.05944
G1 X78.540 Y75.340 E0.05907
G1 X79.330 Y74.860 E0.08237
G1 X79.850 Y74.570 E0.05306
G1 X80.400 Y74.330 E0.05347
G1 X81.260 Y74.000 E0.08208
G1 X81.820 Y73.820 E0.05242
G1 X82.400 Y73.680 E0.05317
G1 X83.300 Y73.510 E0.08162
G1 X84.240 Y73.400 E0.08434
G1 X84.700 Y73.380 E0.04103
G1 X115.270 Y73.380 E2.72412
G1 X115.740 Y73.400 E0.04192
G1 X116.690 Y73.510 E0.08522
G1 X117.590 Y73.680 E0.08162
G1 X118.170 Y73.820 E0.05317
G1 X118.730 Y74.000 E0.05242
G1 X119.590 Y74.330 E0.08208
G1 X120.140 Y74.570 E0.05347
G1 X120.660 Y74.860 E0.05306
G1 X121.450 Y75.340 E0.08237
G1 X122.000 Y75.710 E0.05907
G1 X122.510 Y76.140 E0.05944
G1 X123.190 Y76.770 E0.08260
G1 X123.950 Y77.600 E0.10028
G1 X124.510 Y78.330 E0.08199
G1 X124.870 Y78.860 E0.05709
G1 X125.190 Y79.430 E0.05825
G1 X125.600 Y80.260 E0.08249
G1 X125.850 Y80.820 E0.05465
G1 X126.040 Y81.400 E0.05439
G1 X126.290 Y82.290 E0.08238
G1 X126.420 Y82.860 E0.05210
G1 X126.500 Y83.430 E0.05129
G1 X126.590 Y84.350 E0.08237
G1 X126.620 Y85.000 E0.05798
G1 X126.620 Y114.990 E2.67244
G1 X126.590 Y115.640 E0.05798
G1 X126.500 Y116.560 E0.08237
G1 X126.420 Y117.130 E0.05129
G1 X126.290 Y117.700 E0.05210
G1 X126.040 Y118.590 E0.08238
G1 X125.850 Y119.170 E0.05439
G1 X125.600 Y119.730 E0.05465
G1 X125.190 Y120.560 E0.08249
G1 X124.870 Y121.130 E0.05825
G1 X124.510 Y121.660 E0.05709
G1 X123.950 Y122.390 E0.08199
G1 X123.190 Y123.220 E0.10028
G1 X122.510 Y123.850 E0.08260
G1 X122.000 Y124.280 E0.05944
G1 X121.450 Y124.650 E0.05907
G1 X120.660 Y125.130 E0.08237
G1 X120.140 Y125.420 E0.05306
G1 X119.590 Y125.660 E0.05347
G1 X118.730 Y125.990 E0.08208
G1 X118.170 Y126.170 E0.05242
G1 X117.590 Y126.310 E0.05317
G1 X116.690 Y126.480 E0.08162
G1 X115.880 Y126.580 E0.07273
G1 X114.990 Y126.620 E0.07939
G1 X84.990 Y126.620 E2.67333
G1 X84.100 Y126.580 E0.07939
G1 X83.300 Y126.480 E0.07184
G1 X82.400 Y126.310 E0.08162
G1 X81.820 Y126.170 E0.05317
G1 X81.260 Y125.990 E0.05242
G1 X80.400 Y125.660 E0.08208
G1 X79.850 Y125.420 E0.05347
G1 X79.330 Y125.130 E0.05306
G1 X78.540 Y124.650 E0.08237
G1 X77.990 Y124.280 E0.05907
G1 X77.480 Y123.850 E0.05944
G1 X76.800 Y123.220 E0.08260
G1 X76.030 Y122.370 E0.10220
G1 X75.190 Y121.240 E0.12547
G1 X74.800 Y120.560 E0.06985
G1 X74.390 Y119.730 E0.08249
G1 X74.140 Y119.170 E0.05465
G1 X73.950 Y118.590 E0.05439
G1 X73.700 Y117.700 E0.08238
G1 X73.560 Y117.100 E0.05490
G1 X73.480 Y116.480 E0.05571
G1 X73.400 Y115.560 E0.08229
G1 X73.380 Y114.990 E0.05082
G1 X73.380 Y84.990 E2.67333
G1 X73.400 Y84.410 E0.05172
G1 X73.480 Y83.500 E0.08140
G1 X73.560 Y82.890 E0.05482
G1 X73.700 Y82.290 E0.05490
G1 X73.950 Y81.400 E0.08238
G1 X74.140 Y80.820 E0.05439
G1 X74.390 Y80.260 E0.05465
G1 X74.800 Y79.430 E0.08249
G1 X75.120 Y78.860 E0.05825
G1 X75.480 Y78.330 E0.05709
G1 X76.040 Y77.600 E0.08199
G1 X76.737 Y76.839 E0.09193
G1 F1800.000 E-2.00000
G1 X100.330 Y113.880 F7800.000
G1 F1800.000 E2.00000
G1 X101.004 Y113.865 F540.000 E0.06005
G1 X101.180 Y113.640 E0.02552
G1 X101.004 Y113.865 F7800.000
G1 X101.191 Y114.055 F540.000 E0.02371
G1 X100.330 Y113.880 F7800.000
G1 X99.380 Y113.879 F540.000 E0.08468
G1 X99.380 Y113.879 F7800.000
G1 X99.190 Y113.852 F540.000 E0.01711
G1 X99.190 Y113.852 F7800.000
G1 X99.063 Y113.869 F540.000 E0.01140
G1 X99.063 Y113.869 F7800.000
G1 X99.014 Y113.861 F540.000 E0.00441
G1 X98.911 Y113.715 F7800.000
G1 X99.014 Y113.861 F540.000 E0.01595
G1 X98.835 Y114.048 E0.02312
G1 F1800.000 E-2.00000
G1 X98.919 Y86.321 F7800.000
G1 F1800.000 E2.00000
G1 X98.972 Y86.220 F540.000 E0.01019
G1 X98.972 Y86.220 F7800.000
G1 X98.967 Y86.124 F540.000 E0.00858
G1 X99.008 Y86.188 F7800.000
G1 X101.026 Y86.142 F540.000 E0.17987
G1 X101.002 Y86.181 F7800.000
G1 X101.187 Y86.413 F540.000 E0.02645
G1 F1800.000 E-2.00000
T1
G1 X103.062 Y85.397 F7800.000
G1 X104.460 Y85.751 F540.000 E0.12848
G1 X105.991 Y86.323 E0.14569
G1 X107.464 Y87.069 E0.14711
G1 X108.843 Y87.969 E0.14677
G1 X110.113 Y89.016 E0.14661
G1 X111.259 Y90.194 E0.14646
G1 X112.271 Y91.494 E0.14684
G1 X113.131 Y92.894 E0.14639
G1 X113.833 Y94.380 E0.14648
G1 X114.368 Y95.939 E0.14689
G1 X114.728 Y97.544 E0.14656
G1 X114.908 Y99.178 E0.14644
G1 X114.908 Y100.822 E0.14658
G1 X114.727 Y102.459 E0.14676
G1 X114.368 Y104.061 E0.14624
G1 X113.833 Y105.620 E0.14688
G1 X113.131 Y107.106 E0.14648
G1 X112.270 Y108.508 E0.14656
G1 X111.259 Y109.807 E0.14669
G1 X110.112 Y110.986 E0.14659
G1 X108.843 Y112.030 E0.14645
G1 X107.465 Y112.931 E0.14669
G1 X105.991 Y113.677 E0.14721
G1 X104.460 Y114.249 E0.14568
G1 X103.062 Y114.603 E0.12849
G1 X103.062 Y115.738 E0.10112
G1 X101.234 Y115.908 E0.16357
G1 X98.766 Y115.908 E0.22001
G1 X96.938 Y115.738 E0.16357
G1 X96.938 Y114.592 E0.10214
G1 X96.335 Y114.474 E0.05475
G1 X94.763 Y113.982 E0.14673
G1 X93.260 Y113.323 E0.14630
G1 X91.832 Y112.498 E0.14696
G1 X90.508 Y111.525 E0.14639
G1 X89.298 Y110.412 E0.14651
G1 X88.217 Y109.170 E0.14670
G1 X87.280 Y107.819 E0.14659
G1 X86.497 Y106.372 E0.14660
G1 X85.879 Y104.850 E0.14636
G1 X85.430 Y103.264 E0.14684
G1 X85.160 Y101.642 E0.14660
G1 X85.069 Y100.000 E0.14651
G1 X85.160 Y98.358 E0.14653
G1 X85.430 Y96.736 E0.14660
G1 X85.879 Y95.150 E0.14681
G1 X86.497 Y93.628 E0.14638
G1 X87.279 Y92.182 E0.14654
G1 X88.217 Y90.830 E0.14663
G1 X89.298 Y89.589 E0.14667
G1 X90.508 Y88.475 E0.14657
G1 X91.832 Y87.502 E0.14638
G1 X93.260 Y86.677 E0.14694
G1 X94.763 Y86.018 E0.14632
G1 X96.335 Y85.526 E0.14673
G1 X96.938 Y85.408 E0.05475
G1 X96.938 Y84.203 E0.10737
G1 X100.000 Y84.043 E0.27325
G1 X103.062 Y84.203 E0.27325
G1 X103.062 Y85.303 E0.09800
G1 X102.793 Y85.973 F7800.000
G1 X104.272 Y86.348 F540.000 E0.13596
G1 X105.742 Y86.898 E0.13990
G1 X107.152 Y87.611 E0.14076
G1 X108.472 Y88.474 E0.14055
G1 X109.689 Y89.476 E0.14046
G1 X110.787 Y90.605 E0.14037
G1 X111.756 Y91.850 E0.14060
G1 X112.581 Y93.191 E0.14032
G1 X113.253 Y94.616 E0.14038
G1 X113.766 Y96.109 E0.14063
G1 X114.110 Y97.646 E0.14042
G1 X114.283 Y99.212 E0.14036
G1 X114.283 Y100.788 E0.14044
G1 X114.110 Y102.356 E0.14055
G1 X113.766 Y103.891 E0.14023
G1 X113.253 Y105.384 E0.14062
G1 X112.581 Y106.808 E0.14038
G1 X111.756 Y108.151 E0.14043
G1 X110.787 Y109.395 E0.14051
G1 X109.688 Y110.525 E0.14044
G1 X108.472 Y111.526 E0.14036
G1 X107.152 Y112.389 E0.14050
G1 X105.742 Y113.102 E0.14082
G1 X104.272 Y113.652 E0.13990
G1 X102.749 Y114.038 E0.13996
G1 X102.437 Y114.088 E0.02816
G1 X102.437 Y115.168 E0.09628
G1 X101.204 Y115.283 E0.11038
G1 X98.796 Y115.283 E0.21456
G1 X97.563 Y115.168 E0.11038
G1 X97.563 Y114.077 E0.09723
G1 X96.488 Y113.867 E0.09754
G1 X94.983 Y113.397 E0.14053
G1 X93.542 Y112.764 E0.14027
G1 X92.175 Y111.975 E0.14067
G1 X90.906 Y111.042 E0.14032
G1 X89.747 Y109.975 E0.14040
G1 X88.747 Y108.828 E0.13563
G1 X87.813 Y107.491 E0.14530
G1 X87.063 Y106.105 E0.14045
G1 X86.470 Y104.646 E0.14030
G1 X86.041 Y103.128 E0.14060
G1 X85.782 Y101.573 E0.14045
G1 X85.695 Y100.000 E0.14040
G1 X85.782 Y98.427 E0.14041
G1 X86.041 Y96.872 E0.14045
G1 X86.470 Y95.354 E0.14058
G1 X87.063 Y93.895 E0.14032
G1 X87.813 Y92.509 E0.14042
G1 X88.711 Y91.214 E0.14047
G1 X89.746 Y90.025 E0.14050
G1 X90.906 Y88.958 E0.14043
G1 X92.175 Y88.025 E0.14032
G1 X93.542 Y87.236 E0.14066
G1 X94.983 Y86.603 E0.14028
G1 X96.488 Y86.133 E0.14053
G1 X97.563 Y85.923 E0.09754
G1 X97.563 Y84.796 E0.10037
G1 X100.000 Y84.669 E0.21749
G1 X102.437 Y84.796 E0.21749
G1 X102.437 Y85.912 E0.09943
G1 X102.701 Y85.954 E0.02381
G1 X102.603 Y86.572 F7800.000
G1 X104.084 Y86.945 F378.000 E0.13612
G1 X105.494 Y87.472 E0.13412
G1 X106.839 Y88.153 E0.13441
G1 X108.101 Y88.978 E0.13434
G1 X109.265 Y89.936 E0.13431
G1 X110.316 Y91.016 E0.13427
G1 X111.242 Y92.206 E0.13436
G1 X112.031 Y93.489 E0.13425
G1 X112.674 Y94.852 E0.13428
G1 X113.163 Y96.278 E0.13437
G1 X113.493 Y97.749 E0.13429
G1 X113.659 Y99.246 E0.13427
G1 X113.659 Y100.754 E0.13429
G1 X113.493 Y102.252 E0.13434
G1 X113.163 Y103.722 E0.13422
G1 X112.674 Y105.148 E0.13437
G1 X112.031 Y106.511 E0.13428
G1 X111.241 Y107.795 E0.13429
G1 X110.315 Y108.984 E0.13433
G1 X109.265 Y110.064 E0.13430
G1 X108.101 Y111.022 E0.13427
G1 X106.840 Y111.847 E0.13432
G1 X105.494 Y112.528 E0.13443
G1 X104.084 Y113.055 E0.13412
G1 X102.625 Y113.425 E0.13414
G1 X101.812 Y113.550 E0.07323
G1 X101.812 Y114.599 E0.09346
G1 X101.173 Y114.658 E0.05719
G1 X98.827 Y114.658 E0.20912
G1 X98.188 Y114.599 E0.05719
G1 X98.188 Y113.563 E0.09233
G1 X96.624 Y113.255 E0.14203
G1 X95.203 Y112.811 E0.13263
G1 X93.806 Y112.195 E0.13604
G1 X92.518 Y111.452 E0.13258
G1 X91.304 Y110.559 E0.13426
G1 X90.195 Y109.539 E0.13428
G1 X89.205 Y108.402 E0.13433
G1 X88.346 Y107.163 E0.13430
G1 X87.629 Y105.838 E0.13431
G1 X87.062 Y104.442 E0.13424
G1 X86.657 Y103.011 E0.13255
G1 X86.404 Y101.505 E0.13610
G1 X86.321 Y100.000 E0.13428
G1 X86.404 Y98.495 E0.13429
G1 X86.652 Y97.009 E0.13430
G1 X87.062 Y95.558 E0.13436
G1 X87.629 Y94.162 E0.13425
G1 X88.346 Y92.837 E0.13430
G1 X89.218 Y91.583 E0.13610
G1 X90.195 Y90.461 E0.13251
G1 X91.304 Y89.441 E0.13429
G1 X92.535 Y88.538 E0.13605
G1 X93.824 Y87.794 E0.13257
G1 X95.203 Y87.189 E0.13425
G1 X96.642 Y86.739 E0.13433
G1 X98.188 Y86.437 E0.14033
G1 X98.188 Y85.389 E0.09338
G1 X100.000 Y85.295 E0.16173
G1 X101.812 Y85.389 E0.16173
G1 X101.812 Y86.450 E0.09451
G1 X102.510 Y86.557 E0.06289
G1 X102.792 Y87.167 F7800.000
G1 F1800.000 E-2.00000
G1 X114.964 Y81.562 F7800.000
G1 F1800.000 E2.00000
G1 X115.286 Y81.577 F540.000 E0.02870
G1 X115.939 Y81.699 E0.05926
G1 X116.530 Y81.928 E0.05643
G1 X117.068 Y82.261 E0.05643
G1 X117.536 Y82.688 E0.05643
G1 X117.918 Y83.193 E0.05643
G1 X118.200 Y83.760 E0.05643
G1 X118.373 Y84.369 E0.05643
G1 X118.438 Y85.065 E0.06225
G1 X118.438 Y114.935 E2.66174
G1 X118.373 Y115.631 E0.06225
G1 X118.200 Y116.240 E0.05643
G1 X117.918 Y116.807 E0.05643
G1 X117.536 Y117.312 E0.05643
G1 X117.068 Y117.739 E0.05643
G1 X116.530 Y118.072 E0.05643
G1 X115.939 Y118.301 E0.05643
G1 X115.286 Y118.423 E0.05927
G1 X114.964 Y118.438 E0.02870
G1 X85.033 Y118.438 E2.66721
G1 X84.717 Y118.423 E0.02818
G1 X84.061 Y118.301 E0.05942
G1 X83.471 Y118.072 E0.05643
G1 X82.932 Y117.739 E0.05643
G1 X82.464 Y117.312 E0.05642
G1 X82.083 Y116.807 E0.05642
G1 X81.801 Y116.240 E0.05642
G1 X81.627 Y115.631 E0.05642
G1 X81.562 Y114.928 E0.06293
G1 X81.562 Y85.065 E2.66110
G1 X81.627 Y84.369 E0.06225
G1 X81.800 Y83.760 E0.05643
G1 X82.082 Y83.193 E0.05643
G1 X82.464 Y82.688 E0.05643
G1 X82.932 Y82.261 E0.05643
G1 X83.470 Y81.928 E0.05643
G1 X84.061 Y81.699 E0.05643
G1 X84.714 Y81.577 E0.05926
G1 X85.036 Y81.562 E0.02870
G1 X114.870 Y81.562 E2.65854
G1 X114.978 Y80.937 F7800.000
G1 X115.358 Y80.955 F540.000 E0.03385
G1 X116.111 Y81.096 E0.06829
G1 X116.810 Y81.366 E0.06675
G1 X117.446 Y81.761 E0.06675
G1 X118.000 Y82.265 E0.06675
G1 X118.451 Y82.863 E0.06675
G1 X118.785 Y83.534 E0.06675
G1 X118.990 Y84.254 E0.06675
G1 X119.063 Y85.039 E0.07024
G1 X119.063 Y114.961 E2.66638
G1 X118.990 Y115.746 E0.07024
G1 X118.785 Y116.466 E0.06675
G1 X118.451 Y117.137 E0.06675
G1 X118.000 Y117.735 E0.06675
G1 X117.446 Y118.239 E0.06675
G1 X116.810 Y118.634 E0.06675
G1 X116.111 Y118.904 E0.06675
G1 X115.358 Y119.045 E0.06829
G1 X114.978 Y119.063 E0.03385
G1 X85.020 Y119.063 E2.66966
G1 X84.646 Y119.045 E0.03333
G1 X83.889 Y118.904 E0.06857
G1 X83.191 Y118.634 E0.06675
G1 X82.554 Y118.239 E0.06675
G1 X82.001 Y117.735 E0.06674
G1 X81.549 Y117.137 E0.06674
G1 X81.215 Y116.467 E0.06674
G1 X81.011 Y115.746 E0.06674
G1 X80.937 Y114.957 E0.07067
G1 X80.937 Y85.039 E2.66599
G1 X81.010 Y84.254 E0.07024
G1 X81.215 Y83.534 E0.06675
G1 X81.549 Y82.863 E0.06675
G1 X82.000 Y82.265 E0.06675
G1 X82.554 Y81.761 E0.06675
G1 X83.190 Y81.366 E0.06675
G1 X83.889 Y81.096 E0.06675
G1 X84.642 Y80.955 E0.06829
G1 X85.022 Y80.937 E0.03385
G1 X114.885 Y80.937 E2.66112
G1 X114.993 Y80.312 F7800.000
G1 X115.427 Y80.332 F378.000 E0.03869
G1 X116.283 Y80.493 E0.07762
G1 X117.089 Y80.805 E0.07706
G1 X117.824 Y81.260 E0.07706
G1 X118.463 Y81.843 E0.07706
G1 X118.985 Y82.533 E0.07706
G1 X119.370 Y83.307 E0.07706
G1 X119.607 Y84.139 E0.07706
G1 X119.681 Y84.937 E0.07147
G1 X119.688 Y114.987 E2.67774
G1 X119.607 Y115.861 E0.07822
G1 X119.370 Y116.693 E0.07706
G1 X118.985 Y117.467 E0.07706
G1 X118.463 Y118.157 E0.07706
G1 X117.824 Y118.740 E0.07706
G1 X117.089 Y119.195 E0.07706
G1 X116.283 Y119.507 E0.07706
G1 X115.427 Y119.668 E0.07762
G1 X114.993 Y119.688 E0.03869
G1 X85.007 Y119.688 E2.67211
G1 X84.575 Y119.668 E0.03853
G1 X83.718 Y119.508 E0.07767
G1 X82.911 Y119.195 E0.07706
G1 X82.176 Y118.740 E0.07706
G1 X81.537 Y118.157 E0.07706
G1 X81.016 Y117.467 E0.07706
G1 X80.650 Y116.734 E0.07304
G1 X80.394 Y115.861 E0.08102
G1 X80.312 Y114.986 E0.07837
G1 X80.312 Y85.013 E2.67088
G1 X80.393 Y84.139 E0.07822
G1 X80.630 Y83.307 E0.07706
G1 X81.015 Y82.533 E0.07706
G1 X81.537 Y81.843 E0.07706
G1 X82.176 Y81.260 E0.07706
G1 X82.911 Y80.805 E0.07706
G1 X83.717 Y80.493 E0.07706
G1 X84.573 Y80.332 E0.07762
G1 X85.007 Y80.312 E0.03869
G1 X114.899 Y80.312 E2.66369
G1 X115.198 Y80.695 F7800.000
G1 X117.881 Y84.293
G1 X115.704 Y82.116 F1080.000 E0.27443
G1 X114.719 Y82.015 E0.08823
G1 X117.985 Y85.281 E0.41166
G1 X117.985 Y86.165 E0.07878
G1 X113.835 Y82.015 E0.52306
G1 X112.951 Y82.015 E0.07878
G1 X117.985 Y87.049 E0.63447
G1 X117.985 Y87.933 E0.07878
G1 X112.067 Y82.015 E0.74588
G1 X111.183 Y82.015 E0.07878
G1 X117.985 Y88.817 E0.85729
G1 X117.985 Y89.701 E0.07878
G1 X110.299 Y82.015 E0.96870
G1 X109.416 Y82.015 E0.07878
G1 X117.985 Y90.584 E1.08011
G1 X117.985 Y91.468 F7800.000
G1 X108.532 Y82.015 F1080.000 E1.19152
G1 X107.648 Y82.015 E0.07878
G1 X117.985 Y92.352 E1.30292
G1 X117.985 Y93.236 E0.07878
G1 X106.764 Y82.015 E1.41433
G1 X105.880 Y82.015 E0.07878
G1 X117.985 Y94.120 E1.52574
G1 X117.985 Y95.004 E0.07878
G1 X104.996 Y82.015 E1.63715
G1 X104.112 Y82.015 E0.07878
G1 X117.985 Y95.888 E1.74856
G1 X112.955 Y91.742 F7800.000
G1 X117.985 Y96.772 F1080.000 E0.63399
G1 X117.985 Y97.655 E0.07878
G1 X113.983 Y93.654 E0.50435
G1 X114.566 Y95.120 E0.14062
G1 X117.985 Y98.539 E0.43094
G1 X117.985 Y99.423 E0.07878
G1 X114.928 Y96.366 E0.38531
G1 X115.179 Y97.501 E0.10357
G1 X117.985 Y100.307 E0.35370
G1 X117.985 Y101.191 E0.07878
G1 X115.289 Y98.495 E0.33986
G1 X115.361 Y99.451 E0.08551
G1 X117.985 Y102.075 E0.33069
G1 X117.985 Y102.959 E0.07878
G1 X115.361 Y100.335 E0.33069
G1 X115.324 Y101.182 E0.07555
G1 X117.985 Y103.843 E0.33536
G1 X117.985 Y104.727 E0.07878
G1 X115.236 Y101.978 E0.34648
G1 X115.126 Y102.751 E0.06964
G1 X117.985 Y105.610 E0.36038
G1 X117.985 Y106.494 E0.07878
G1 X114.964 Y103.473 E0.38078
G1 X114.801 Y104.194 E0.06588
G1 X117.985 Y107.378 E0.40130
G1 X117.985 Y108.262 E0.07878
G1 X114.575 Y104.852 E0.42977
G1 X114.349 Y105.510 E0.06201
G1 X117.985 Y109.146 E0.45824
G1 X117.985 Y110.030 E0.07878
G1 X114.090 Y106.135 E0.49087
G1 X113.807 Y106.736 E0.05918
G1 X117.985 Y110.914 E0.52659
G1 X117.985 Y111.798 E0.07878
G1 X113.522 Y107.335 E0.56247
G1 X113.186 Y107.883 E0.05727
G1 X117.985 Y112.682 E0.60488
