; generated by Slic3r 0.9.10b on 2013-11-13 at 17:29:24

; layer_height = 0.35
; perimeters = 3
; top_solid_layers = 3
; bottom_solid_layers = 3
; fill_density = 0.4
; perimeter_speed = 30
; infill_speed = 60
; travel_speed = 130
; nozzle_diameter = 0.35
; filament_diameter = 1.75
; extrusion_multiplier = 0.98
; perimeters extrusion width = 0.37mm
; infill extrusion width = 0.37mm
; solid infill extrusion width = 0.37mm
; top infill extrusion width = 0.37mm
; first layer extrusion width = 0.70mm

G21 ; set units to millimeters
M107
M140 S105 ; set bed temp, don't wait
M104 S240,240 ; set heater temp, don't wait
G0 X10 Y10 Z10 F7000
G28 X0 Y0
G0 Z3 F300
G0 Z0 F75
M190 S105 ; wait for bed temp
M109 S240,240 ; set heater temp and wait
M908 P3 S110 ; set motor current to a safe level. In the next host release we'll remove this command from startgcode
G92 E0 ; reset extruder length
G90 ; use absolute coordinates
M83 ; use relative distances for extrusion
T0
G1 Z0.350 F7800.000
G1 F1800.000 E-2.00000
G1 X78.249 Y81.178 F7800.000
G1 F1800.000 E2.00000
G1 X79.249 Y80.348 F540.000 E0.11581
G1 X80.389 Y79.738 E0.11522
G1 X81.639 Y79.358 E0.11642
G1 X82.929 Y79.238 E0.11545
G1 X102.919 Y79.238 E1.78133
G1 X104.209 Y79.358 E0.11545
G1 X105.449 Y79.738 E0.11557
G1 X106.599 Y80.348 E0.11600
G1 X107.599 Y81.168 E0.11524
G1 X121.749 Y95.308 E1.78258
G1 X122.579 Y96.318 E0.11649
G1 X123.189 Y97.458 E0.11522
G1 X123.569 Y98.708 E0.11642
G1 X123.689 Y99.998 E0.11545
G1 X123.569 Y101.288 E0.11545
G1 X123.189 Y102.538 E0.11642
G1 X122.579 Y103.678 E0.11522
G1 X121.749 Y104.688 E0.11649
G1 X107.599 Y118.828 E1.78258
G1 X106.599 Y119.648 E0.11524
G1 X105.449 Y120.258 E0.11600
G1 X104.209 Y120.638 E0.11557
G1 X102.919 Y120.758 E0.11545
G1 X101.629 Y120.638 E0.11545
G1 X100.379 Y120.258 E0.11642
G1 X80.389 Y111.978 E1.92809
G1 X79.249 Y111.368 E0.11522
G1 X78.249 Y110.538 E0.11581
G1 X77.419 Y109.538 E0.11581
G1 X76.809 Y108.398 E0.11522
G1 X76.429 Y107.148 E0.11642
G1 X76.309 Y105.858 E0.11545
G1 X76.309 Y85.858 E1.78222
G1 X76.429 Y84.568 E0.11545
G1 X76.809 Y83.318 E0.11642
G1 X77.419 Y82.178 E0.11522
G1 X78.189 Y81.250 E0.10745
G1 F1800.000 E-2.00000
G1 X90.996 Y100.000 F7800.000
G1 F1800.000 E2.00000
G1 X102.929 Y88.067 F540.000 E1.50380
G1 X114.862 Y100.000 E1.50379
G1 X102.929 Y111.933 E1.50380
G1 X91.062 Y100.066 E1.49545
G1 X90.112 Y100.000 F7800.000
G1 X102.929 Y87.183 F540.000 E1.61516
G1 X115.745 Y100.000 E1.61516
G1 X102.929 Y112.817 E1.61517
G1 X90.179 Y100.066 E1.60682
G1 X89.503 Y100.274 F7800.000
G1 X89.229 Y100.000 F378.000 E0.03454
G1 X102.929 Y86.300 E1.72653
G1 X116.629 Y100.000 E1.72653
G1 X102.929 Y113.700 E1.72654
G1 X89.569 Y100.340 E1.68365
G1 X89.603 Y99.900 F7800.000
G1 X103.035 Y111.186
G1 X91.743 Y99.893 F1080.000 E1.43602
G1 X92.189 Y99.448 E0.05670
G1 X103.481 Y110.740 E1.43602
G1 X103.927 Y110.294 E0.05670
G1 X92.635 Y99.002 E1.43602
G1 X93.081 Y98.556 E0.05670
G1 X104.373 Y109.848 E1.43602
G1 X104.819 Y109.402 E0.05670
G1 X93.527 Y98.110 E1.43602
G1 X93.973 Y97.664 E0.05670
G1 X105.265 Y108.956 E1.43602
G1 X105.711 Y108.510 E0.05670
G1 X94.418 Y97.218 E1.43601
G1 X94.864 Y96.772 E0.05670
G1 X106.157 Y108.065 E1.43601
G1 X106.603 Y107.619 E0.05670
G1 X95.310 Y96.326 E1.43601
G1 X95.756 Y95.881 E0.05670
G1 X107.048 Y107.173 E1.43601
G1 X107.494 Y106.727 E0.05670
G1 X96.202 Y95.435 E1.43601
G1 X96.648 Y94.989 E0.05670
G1 X107.940 Y106.281 E1.43601
G1 X108.386 Y105.835 E0.05670
G1 X97.094 Y94.543 E1.43601
G1 X97.540 Y94.097 E0.05670
G1 X108.832 Y105.389 E1.43601
G1 X109.278 Y104.943 E0.05670
G1 X97.985 Y93.651 E1.43601
G1 X98.431 Y93.205 E0.05670
G1 X109.724 Y104.498 E1.43601
G1 X110.170 Y104.052 E0.05670
G1 X98.877 Y92.759 E1.43601
G1 X99.323 Y92.313 E0.05670
G1 X110.615 Y103.606 E1.43601
G1 X111.061 Y103.160 E0.05670
G1 X99.769 Y91.868 E1.43601
G1 X100.215 Y91.422 E0.05670
G1 X111.507 Y102.714 E1.43601
G1 X111.953 Y102.268 E0.05670
G1 X100.661 Y90.976 E1.43601
G1 X101.107 Y90.530 E0.05670
G1 X112.399 Y101.822 E1.43601
G1 X112.845 Y101.376 E0.05670
G1 X101.553 Y90.084 E1.43601
G1 X101.998 Y89.638 E0.05670
G1 X113.291 Y100.930 E1.43601
G1 X113.737 Y100.485 E0.05670
G1 X102.444 Y89.192 E1.43601
G1 X102.890 Y88.746 E0.05670
G1 X114.182 Y100.039 E1.43601
G1 F1800.000 E-2.00000
T1
G1 X99.157 Y87.420 F7800.000
G1 X86.577 Y100.000 F540.000 E1.58534
G1 X90.873 Y104.296 E0.54135
G1 X84.491 Y104.296 E0.56870
G1 X84.491 Y87.420 E1.50380
G1 X99.064 Y87.420 E1.29857
G1 X100.666 Y86.795 F7800.000
G1 X87.461 Y100.000 F540.000 E1.66409
G1 X92.382 Y104.921 E0.62010
G1 X83.866 Y104.921 E0.75882
G1 X83.866 Y86.795 E1.61517
G1 X100.572 Y86.795 E1.48869
G1 X102.175 Y86.170 F7800.000
G1 X88.345 Y100.000 F378.000 E1.74284
G1 X93.890 Y105.545 E0.69885
G1 X83.241 Y105.545 E0.94894
G1 X83.241 Y86.170 E1.72654
G1 X102.081 Y86.170 E1.67881
G1 X101.633 Y86.483 F7800.000
G1 X97.811 Y88.126
G1 X97.558 Y87.873 F1080.000 E0.03188
G1 X97.365 Y88.572 F7800.000
G1 X96.666 Y87.873 F1080.000 E0.08807
G1 X95.774 Y87.873 F7800.000
G1 X96.919 Y89.018 F1080.000 E0.14426
G1 X96.473 Y89.464 F7800.000
G1 X94.883 Y87.873 F1080.000 E0.20046
G1 X93.991 Y87.873 F7800.000
G1 X96.027 Y89.910 F1080.000 E0.25665
G1 X95.582 Y90.355 F7800.000
G1 X93.099 Y87.873 F1080.000 E0.31284
G1 X92.207 Y87.873 F7800.000
G1 X95.136 Y90.801 F1080.000 E0.36903
G1 X94.690 Y91.247 F7800.000
G1 X91.316 Y87.873 F1080.000 E0.42522
G1 X90.424 Y87.873 F7800.000
G1 X94.244 Y91.693 F1080.000 E0.48141
G1 X93.798 Y92.139 F7800.000
G1 X89.532 Y87.873 F1080.000 E0.53760
G1 X88.640 Y87.873 F7800.000
G1 X93.352 Y92.585 F1080.000 E0.59379
G1 X92.906 Y93.031 F7800.000
G1 X87.749 Y87.873 F1080.000 E0.64998
G1 X86.857 Y87.873 F7800.000
G1 X92.460 Y93.477 F1080.000 E0.70617
G1 X92.014 Y93.922 F7800.000
G1 X85.965 Y87.873 F1080.000 E0.76236
G1 X85.073 Y87.873 F7800.000
G1 X91.569 Y94.368 F1080.000 E0.81855
G1 X91.123 Y94.814 F7800.000
G1 X84.944 Y88.636 F1080.000 E0.77864
G1 X84.944 Y89.527 F7800.000
G1 X90.677 Y95.260 F1080.000 E0.72245
G1 X90.231 Y95.706 F7800.000
G1 X84.944 Y90.419 F1080.000 E0.66626
G1 X84.944 Y91.311 F7800.000
G1 X89.785 Y96.152 F1080.000 E0.61007
G1 X89.339 Y96.598 F7800.000
G1 X84.944 Y92.203 F1080.000 E0.55388
G1 X84.944 Y93.094 F7800.000
G1 X88.893 Y97.044 F1080.000 E0.49769
G1 X88.447 Y97.489 F7800.000
G1 X84.944 Y93.986 F1080.000 E0.44150
G1 X84.944 Y94.878 F7800.000
G1 X88.002 Y97.935 F1080.000 E0.38531
G1 X87.556 Y98.381 F7800.000
G1 X84.944 Y95.770 F1080.000 E0.32912
G1 X84.944 Y96.661 F7800.000
G1 X87.110 Y98.827 F1080.000 E0.27293
G1 X86.664 Y99.273 F7800.000
G1 X84.944 Y97.553 F1080.000 E0.21673
G1 X84.944 Y98.445 F7800.000
G1 X86.218 Y99.719 F1080.000 E0.16054
G1 X84.944 Y99.337 F7800.000
G1 X89.450 Y103.843 F1080.000 E0.56786
G1 X88.558 Y103.843 F7800.000
G1 X84.944 Y100.228 F1080.000 E0.45547
G1 X84.944 Y101.120 F7800.000
G1 X87.667 Y103.843 F1080.000 E0.34309
G1 X86.775 Y103.843 F7800.000
G1 X84.944 Y102.012 F1080.000 E0.23071
G1 X84.944 Y102.904 F7800.000
G1 X85.883 Y103.843 F1080.000 E0.11833
G1 X84.991 Y103.843 F7800.000
G1 X84.944 Y103.795 F1080.000 E0.00595
M106 S205
M104 S237 T0 ; set temperature
M104 S237 T1 ; set temperature
M140 S100 ; set bed temperature
G1 Z0.700 F7800.000
G1 X83.838 Y104.948
G1 X83.838 Y86.767 F1800.000 E0.94308
G1 X100.734 Y86.767 E0.87637
G1 X87.501 Y100.000 E0.97071
G1 X92.449 Y104.948 E0.36301
G1 X83.893 Y104.948 E0.44383
G1 X83.475 Y105.312 F7800.000
G1 X83.475 Y86.403 F1800.000 E0.98082
G1 X101.612 Y86.403 E0.94079
G1 X88.015 Y100.000 E0.99739
G1 X93.327 Y105.312 E0.38969
G1 X83.529 Y105.312 E0.50825
G1 X83.111 Y105.676 F7800.000
G1 X83.111 Y86.040 F1260.000 E1.01855
G1 X102.490 Y86.040 E1.00521
G1 X88.530 Y100.000 E1.02408
G1 X94.206 Y105.676 E0.41637
G1 X83.165 Y105.676 E0.57267
G1 X83.293 Y105.361 F7800.000
G1 X91.639 Y104.511
G1 X91.465 Y104.685 F3600.000 E0.01281
G1 X91.381 Y104.253 E0.02292
G1 X90.949 Y104.685 E0.03182
G1 X90.432 Y104.685 E0.02688
G1 X91.123 Y103.995 E0.05083
G1 X90.864 Y103.736 E0.01901
G1 X89.916 Y104.685 E0.06983
G1 X89.400 Y104.685 E0.02688
G1 X90.606 Y103.478 E0.08884
G1 X90.348 Y103.220 E0.01901
G1 X88.883 Y104.685 E0.10784
G1 X88.367 Y104.685 E0.02688
G1 X90.090 Y102.962 E0.12685
G1 X89.832 Y102.704 E0.01901
G1 X87.851 Y104.685 E0.14585
G1 X87.335 Y104.685 E0.02688
G1 X89.574 Y102.446 E0.16486
G1 X89.316 Y102.188 E0.01901
G1 X86.818 Y104.685 E0.18386
G1 X86.302 Y104.685 E0.02688
G1 X89.057 Y101.929 E0.20287
G1 X88.799 Y101.671 E0.01901
G1 X85.786 Y104.685 E0.22187
G1 X85.269 Y104.685 E0.02688
G1 X88.541 Y101.413 E0.24088
G1 X88.283 Y101.155 E0.01901
G1 X84.753 Y104.685 E0.25988
G1 X84.237 Y104.685 E0.02688
G1 X88.025 Y100.897 E0.27889
G1 X87.767 Y100.639 E0.01901
G1 X84.102 Y104.304 E0.26982
G1 X84.102 Y103.787 E0.02688
G1 X87.509 Y100.381 E0.25081
G1 X87.250 Y100.122 E0.01901
G1 X84.102 Y103.271 E0.23181
G1 X84.102 Y102.755 E0.02688
G1 X99.826 Y87.031 E1.15765
G1 X99.309 Y87.031 E0.02688
G1 X84.102 Y102.238 E1.11963
G1 X84.102 Y101.722 E0.02688
G1 X98.793 Y87.031 E1.08162
G1 X98.277 Y87.031 E0.02688
G1 X84.102 Y101.206 E1.04361
G1 X84.102 Y100.690 E0.02688
G1 X97.761 Y87.031 E1.00560
G1 X97.244 Y87.031 E0.02688
G1 X84.102 Y100.173 E0.96759
G1 X84.102 Y99.657 E0.02688
G1 X96.728 Y87.031 E0.92958
G1 X96.212 Y87.031 E0.02688
G1 X84.102 Y99.141 E0.89157
G1 X84.102 Y98.624 E0.02688
G1 X95.696 Y87.031 E0.85356
G1 X95.179 Y87.031 E0.02688
G1 X84.102 Y98.108 E0.81555
G1 X84.102 Y97.592 E0.02688
G1 X94.663 Y87.031 E0.77754
G1 X94.147 Y87.031 E0.02688
G1 X84.102 Y97.076 E0.73953
G1 X84.102 Y96.559 E0.02688
G1 X93.630 Y87.031 E0.70152
G1 X93.114 Y87.031 E0.02688
G1 X84.102 Y96.043 E0.66351
G1 X84.102 Y95.527 E0.02688
G1 X92.598 Y87.031 E0.62550
G1 X92.082 Y87.031 E0.02688
G1 X84.102 Y95.010 E0.58749
G1 X84.102 Y94.494 E0.02688
G1 X91.565 Y87.031 E0.54948
G1 X91.049 Y87.031 E0.02688
G1 X84.102 Y93.978 E0.51147
G1 X84.102 Y93.462 E0.02688
G1 X90.533 Y87.031 E0.47346
G1 X90.016 Y87.031 E0.02688
G1 X84.102 Y92.945 E0.43545
G1 X84.102 Y92.429 E0.02688
G1 X89.500 Y87.031 E0.39744
G1 X88.984 Y87.031 E0.02688
G1 X84.102 Y91.913 E0.35942
G1 X84.102 Y91.396 E0.02688
G1 X88.468 Y87.031 E0.32141
G1 X87.951 Y87.031 E0.02688
G1 X84.102 Y90.880 E0.28340
G1 X84.102 Y90.364 E0.02688
G1 X87.435 Y87.031 E0.24539
G1 X86.919 Y87.031 E0.02688
G1 X84.102 Y89.848 E0.20738
G1 X84.102 Y89.331 E0.02688
G1 X86.402 Y87.031 E0.16937
G1 X85.886 Y87.031 E0.02688
G1 X84.102 Y88.815 E0.13136
G1 X84.102 Y88.299 E0.02688
G1 X85.370 Y87.031 E0.09335
G1 X84.854 Y87.031 E0.02688
G1 X84.102 Y87.782 E0.05534
G1 X84.102 Y87.266 E0.02688
G1 X84.337 Y87.031 E0.01733
G1 F1800.000 E-2.00000
T0
G1 X90.073 Y100.000 F7800.000
G1 F1800.000 E2.00000
G1 X102.929 Y87.144 F1800.000 E0.94308
G1 X115.785 Y100.000 E0.94308
G1 X102.929 Y112.856 E0.94308
G1 X90.111 Y100.039 E0.94025
G1 X89.558 Y100.000 F7800.000
G1 X102.929 Y86.629 F1800.000 E0.98082
G1 X116.299 Y100.000 E0.98081
G1 X102.929 Y113.371 E0.98082
G1 X89.597 Y100.039 E0.97799
G1 X89.044 Y100.000 F7800.000
G1 X102.929 Y86.115 F1260.000 E1.01855
G1 X116.814 Y100.000 E1.01855
G1 X102.929 Y113.885 E1.01855
G1 X89.083 Y100.039 E1.01572
G1 X89.395 Y99.906 F7800.000
G1 X90.458 Y100.012
G1 X102.941 Y87.529 F3600.000 E0.91906
G1 X103.200 Y87.787 E0.01901
G1 X90.716 Y100.271 E0.91906
G1 X90.974 Y100.529 E0.01901
G1 X103.458 Y88.045 E0.91906
G1 X103.716 Y88.304 E0.01901
G1 X91.233 Y100.787 E0.91906
G1 X91.491 Y101.045 E0.01901
G1 X103.974 Y88.562 E0.91906
G1 X104.232 Y88.820 E0.01901
G1 X91.749 Y101.303 E0.91906
G1 X92.007 Y101.561 E0.01901
G1 X104.490 Y89.078 E0.91906
G1 X104.748 Y89.336 E0.01901
G1 X92.265 Y101.819 E0.91906
G1 X92.523 Y102.078 E0.01901
G1 X105.007 Y89.594 E0.91906
G1 X105.265 Y89.852 E0.01901
G1 X92.781 Y102.336 E0.91906
G1 X93.040 Y102.594 E0.01901
G1 X105.523 Y90.111 E0.91906
G1 X105.781 Y90.369 E0.01901
G1 X93.298 Y102.852 E0.91906
G1 X93.556 Y103.110 E0.01901
G1 X106.039 Y90.627 E0.91906
G1 X106.297 Y90.885 E0.01901
G1 X93.814 Y103.368 E0.91906
G1 X94.072 Y103.626 E0.01901
G1 X106.555 Y91.143 E0.91906
G1 X106.814 Y91.401 E0.01901
G1 X94.330 Y103.885 E0.91906
G1 X94.588 Y104.143 E0.01901
G1 X107.072 Y91.659 E0.91906
G1 X107.330 Y91.918 E0.01901
G1 X94.847 Y104.401 E0.91906
G1 X95.105 Y104.659 E0.01901
G1 X107.588 Y92.176 E0.91906
G1 X107.846 Y92.434 E0.01901
G1 X95.363 Y104.917 E0.91906
G1 X95.621 Y105.175 E0.01901
G1 X108.104 Y92.692 E0.91906
G1 X108.362 Y92.950 E0.01901
G1 X95.879 Y105.433 E0.91906
G1 X96.137 Y105.692 E0.01901
G1 X108.621 Y93.208 E0.91906
G1 X108.879 Y93.466 E0.01901
G1 X96.395 Y105.950 E0.91906
G1 X96.653 Y106.208 E0.01901
G1 X109.137 Y93.725 E0.91906
G1 X109.395 Y93.983 E0.01901
G1 X96.912 Y106.466 E0.91906
G1 X97.170 Y106.724 E0.01901
G1 X109.653 Y94.241 E0.91907
G1 X109.911 Y94.499 E0.01901
G1 X97.428 Y106.982 E0.91907
G1 X97.686 Y107.240 E0.01901
G1 X110.169 Y94.757 E0.91907
G1 X110.428 Y95.015 E0.01901
G1 X97.944 Y107.499 E0.91907
G1 X98.202 Y107.757 E0.01901
G1 X110.686 Y95.273 E0.91907
G1 X110.944 Y95.532 E0.01901
G1 X98.460 Y108.015 E0.91907
G1 X98.719 Y108.273 E0.01901
G1 X111.202 Y95.790 E0.91907
G1 X111.460 Y96.048 E0.01901
G1 X98.977 Y108.531 E0.91907
G1 X99.235 Y108.789 E0.01901
G1 X111.718 Y96.306 E0.91907
G1 X111.976 Y96.564 E0.01901
G1 X99.493 Y109.047 E0.91907
G1 X99.751 Y109.306 E0.01901
G1 X112.235 Y96.822 E0.91907
G1 X112.493 Y97.080 E0.01901
G1 X100.009 Y109.564 E0.91907
G1 X100.267 Y109.822 E0.01901
G1 X112.751 Y97.339 E0.91907
G1 X113.009 Y97.597 E0.01901
G1 X100.526 Y110.080 E0.91907
G1 X100.784 Y110.338 E0.01901
G1 X113.267 Y97.855 E0.91907
G1 X113.525 Y98.113 E0.01901
G1 X101.042 Y110.596 E0.91907
G1 X101.300 Y110.854 E0.01901
G1 X113.783 Y98.371 E0.91907
G1 X114.042 Y98.629 E0.01901
G1 X101.558 Y111.113 E0.91907
G1 X101.816 Y111.371 E0.01901
G1 X114.300 Y98.887 E0.91907
G1 X114.558 Y99.146 E0.01901
G1 X102.074 Y111.629 E0.91907
G1 X102.333 Y111.887 E0.01901
G1 X114.816 Y99.404 E0.91907
G1 X115.074 Y99.662 E0.01901
G1 X102.591 Y112.145 E0.91907
G1 X102.849 Y112.403 E0.01901
G1 X115.332 Y99.920 E0.91907
M106 S207
G1 Z1.050 F7800.000
G1 X115.785 Y100.000
G1 X102.929 Y112.856 F1800.000 E0.94308
G1 X90.073 Y100.000 E0.94308
G1 X102.929 Y87.144 E0.94308
G1 X115.746 Y99.961 E0.94025
G1 X116.299 Y100.000 F7800.000
G1 X102.929 Y113.371 F1800.000 E0.98082
G1 X89.558 Y100.000 E0.98082
G1 X102.929 Y86.629 E0.98082
G1 X116.261 Y99.961 E0.97798
G1 X116.814 Y100.000 F7800.000
G1 X102.929 Y113.885 F1260.000 E1.01855
G1 X89.044 Y100.000 E1.01855
G1 X102.929 Y86.115 E1.01855
G1 X116.775 Y99.961 E1.01572
G1 X116.462 Y100.094 F7800.000
G1 X103.021 Y112.391
G1 X90.538 Y99.908 F3600.000 E0.91907
G1 X90.796 Y99.650 E0.01901
G1 X103.279 Y112.133 E0.91907
G1 X103.537 Y111.875 E0.01901
G1 X91.054 Y99.392 E0.91907
G1 X91.312 Y99.134 E0.01901
G1 X103.795 Y111.617 E0.91907
G1 X104.053 Y111.359 E0.01901
G1 X91.570 Y98.875 E0.91907
G1 X91.828 Y98.617 E0.01901
G1 X104.312 Y111.101 E0.91907
G1 X104.570 Y110.843 E0.01901
G1 X92.086 Y98.359 E0.91907
G1 X92.344 Y98.101 E0.01901
G1 X104.828 Y110.584 E0.91907
G1 X105.086 Y110.326 E0.01901
G1 X92.603 Y97.843 E0.91907
G1 X92.861 Y97.585 E0.01901
G1 X105.344 Y110.068 E0.91907
G1 X105.602 Y109.810 E0.01901
G1 X93.119 Y97.327 E0.91907
G1 X93.377 Y97.069 E0.01901
G1 X105.860 Y109.552 E0.91907
G1 X106.119 Y109.294 E0.01901
G1 X93.635 Y96.810 E0.91907
G1 X93.893 Y96.552 E0.01901
G1 X106.377 Y109.036 E0.91907
G1 X106.635 Y108.777 E0.01901
G1 X94.151 Y96.294 E0.91907
G1 X94.410 Y96.036 E0.01901
G1 X106.893 Y108.519 E0.91907
G1 X107.151 Y108.261 E0.01901
G1 X94.668 Y95.778 E0.91907
G1 X94.926 Y95.520 E0.01901
G1 X107.409 Y108.003 E0.91907
G1 X107.667 Y107.745 E0.01901
G1 X95.184 Y95.262 E0.91907
G1 X95.442 Y95.003 E0.01901
G1 X107.926 Y107.487 E0.91907
G1 X108.184 Y107.229 E0.01901
G1 X95.700 Y94.745 E0.91907
G1 X95.958 Y94.487 E0.01901
G1 X108.442 Y106.970 E0.91907
G1 X108.700 Y106.712 E0.01901
G1 X96.217 Y94.229 E0.91907
G1 X96.475 Y93.971 E0.01901
G1 X108.958 Y106.454 E0.91906
G1 X109.216 Y106.196 E0.01901
G1 X96.733 Y93.713 E0.91906
G1 X96.991 Y93.455 E0.01901
G1 X109.474 Y105.938 E0.91906
