; generated by Slic3r 0.9.10b on 2013-11-12 at 19:50:24

; Perfil feito por rsilva em 20/0/13
; Baseado no MM_025_FAST, porém bem modificado e com a velocidade reduzida.

; layer_height = 0.25
; perimeters = 2
; top_solid_layers = 4
; bottom_solid_layers = 2
; fill_density = 0.35
; perimeter_speed = 60
; infill_speed = 60
; travel_speed = 70
; nozzle_diameter = 0.35
; filament_diameter = 1.75
; extrusion_multiplier = 0.98
; perimeters extrusion width = 0.39mm
; infill extrusion width = 0.47mm
; solid infill extrusion width = 0.39mm
; top infill extrusion width = 0.39mm
; first layer extrusion width = 0.48mm

G21 ; set units to millimeters
M107
M140 S105 ; set bed temp, don't wait
M104 S240,240 ; set heater temp, don't wait
G0 X10 Y10 Z10 F7000
G28 X0 Y0
G0 Z3 F300
G0 Z0 F75
M190 S105 ; wait for bed temp
M109 S240,240 ; set heater temp and wait
M908 P3 S110 ; set motor current to a safe level. In the next host release we'll remove this command from startgcode
G92 E0 ; reset extruder length
G90 ; use absolute coordinates
M83 ; use relative distances for extrusion
T0
G1 Z0.300 F4200.000
G1 F1800.000 E-2.00000
G1 X74.899 Y77.828 F4200.000
G1 F1800.000 E2.00000
G1 X76.249 Y76.668 F1200.000 E0.09836
G1 X77.769 Y75.738 E0.09847
G1 X79.419 Y75.058 E0.09862
G1 X81.149 Y74.638 E0.09838
G1 X82.929 Y74.498 E0.09867
G1 X102.919 Y74.498 E1.10466
G1 X104.699 Y74.638 E0.09867
G1 X106.429 Y75.058 E0.09838
G1 X108.069 Y75.738 E0.09811
G1 X109.589 Y76.668 E0.09847
G1 X110.949 Y77.828 E0.09878
G1 X125.099 Y91.968 E1.10544
G1 X126.259 Y93.318 E0.09836
G1 X127.189 Y94.838 E0.09847
G1 X127.869 Y96.488 E0.09862
G1 X128.289 Y98.218 E0.09838
G1 X128.429 Y99.998 E0.09867
G1 X128.289 Y101.778 E0.09867
G1 X127.869 Y103.508 E0.09838
G1 X127.189 Y105.158 E0.09862
G1 X126.259 Y106.678 E0.09847
G1 X125.099 Y108.028 E0.09836
G1 X110.949 Y122.168 E1.10544
G1 X109.679 Y123.258 E0.09249
G1 X108.269 Y124.158 E0.09244
G1 X106.739 Y124.828 E0.09230
G1 X105.129 Y125.278 E0.09238
G1 X103.479 Y125.478 E0.09185
G1 X101.809 Y125.438 E0.09231
G1 X100.159 Y125.158 E0.09248
G1 X98.569 Y124.628 E0.09262
G1 X78.579 Y116.348 E1.19568
G1 X77.089 Y115.598 E0.09218
G1 X75.729 Y114.638 E0.09199
G1 X74.519 Y113.488 E0.09225
G1 X73.489 Y112.168 E0.09252
G1 X72.659 Y110.718 E0.09233
G1 X72.059 Y109.158 E0.09236
G1 X71.699 Y107.528 E0.09225
G1 X71.569 Y105.858 E0.09256
G1 X71.569 Y85.858 E1.10522
G1 X71.709 Y84.078 E0.09867
G1 X72.129 Y82.348 E0.09838
G1 X72.809 Y80.698 E0.09862
G1 X73.739 Y79.178 E0.09847
G1 X74.855 Y77.879 E0.09461
G1 X75.219 Y78.148 F4200.000
G1 X76.519 Y77.038 F1200.000 E0.09446
G1 X77.979 Y76.138 E0.09478
G1 X79.559 Y75.488 E0.09441
G1 X81.219 Y75.088 E0.09436
G1 X82.929 Y74.958 E0.09477
G1 X102.919 Y74.958 E1.10466
G1 X104.629 Y75.088 E0.09477
G1 X106.289 Y75.488 E0.09436
G1 X107.869 Y76.138 E0.09441
G1 X109.329 Y77.038 E0.09478
G1 X110.629 Y78.148 E0.09446
G1 X124.779 Y92.288 E1.10544
G1 X125.889 Y93.588 E0.09446
G1 X126.779 Y95.048 E0.09449
G1 X127.439 Y96.628 E0.09462
G1 X127.839 Y98.288 E0.09436
G1 X127.969 Y99.998 E0.09477
G1 X127.839 Y101.708 E0.09477
G1 X127.439 Y103.368 E0.09436
G1 X126.779 Y104.948 E0.09462
G1 X125.889 Y106.408 E0.09449
G1 X124.779 Y107.708 E0.09446
G1 X110.629 Y121.848 E1.10544
G1 X109.229 Y123.028 E0.10118
G1 X107.649 Y123.968 E0.10160
G1 X105.939 Y124.618 E0.10109
G1 X104.139 Y124.978 E0.10144
G1 X102.309 Y125.028 E0.10117
G1 X100.489 Y124.768 E0.10160
G1 X98.749 Y124.208 E0.10101
G1 X78.759 Y115.928 E1.19568
G1 X77.129 Y115.088 E0.10133
G1 X75.659 Y113.988 E0.10146
G1 X74.399 Y112.658 E0.10124
G1 X73.389 Y111.128 E0.10131
G1 X72.639 Y109.458 E0.10117
G1 X72.179 Y107.688 E0.10106
G1 X72.029 Y105.858 E0.10147
G1 X72.029 Y85.858 E1.10522
G1 X72.159 Y84.148 E0.09477
G1 X72.559 Y82.488 E0.09436
G1 X73.209 Y80.908 E0.09441
G1 X74.109 Y79.448 E0.09478
G1 X75.175 Y78.199 E0.09072
G1 F1800.000 E-3.00000
T1
G1 X75.539 Y78.468 F4200.000
G1 X76.789 Y77.398 F1200.000 E0.09093
G1 X78.179 Y76.548 E0.09004
G1 X79.699 Y75.918 E0.09093
G1 X81.289 Y75.538 E0.09034
G1 X82.929 Y75.408 E0.09091
G1 X102.919 Y75.408 E1.10466
G1 X104.549 Y75.538 E0.09036
G1 X106.149 Y75.918 E0.09088
G1 X107.659 Y76.548 E0.09042
G1 X109.059 Y77.398 E0.09051
G1 X110.309 Y78.468 E0.09093
G1 X124.459 Y92.608 E1.10544
G1 X125.519 Y93.848 E0.09015
G1 X126.379 Y95.248 E0.09080
G1 X127.009 Y96.768 E0.09093
G1 X127.389 Y98.358 E0.09034
G1 X127.519 Y99.998 E0.09091
G1 X127.389 Y101.638 E0.09091
G1 X127.009 Y103.228 E0.09034
G1 X126.379 Y104.748 E0.09093
G1 X125.519 Y106.148 E0.09080
G1 X124.459 Y107.388 E0.09015
G1 X110.309 Y121.528 E1.10544
G1 X108.969 Y122.668 E0.09722
G1 X107.449 Y123.558 E0.09734
G1 X105.809 Y124.178 E0.09689
G1 X104.089 Y124.528 E0.09700
G1 X102.329 Y124.578 E0.09730
G1 X100.589 Y124.328 E0.09714
G1 X98.919 Y123.798 E0.09682
G1 X78.929 Y115.518 E1.19568
G1 X77.369 Y114.708 E0.09713
G1 X75.969 Y113.648 E0.09704
G1 X74.759 Y112.378 E0.09694
G1 X73.779 Y110.918 E0.09717
G1 X73.059 Y109.308 E0.09746
G1 X72.629 Y107.608 E0.09690
G1 X72.479 Y105.858 E0.09706
G1 X72.479 Y85.858 E1.10522
G1 X72.609 Y84.218 E0.09091
G1 X72.989 Y82.628 E0.09034
G1 X73.619 Y81.108 E0.09093
G1 X74.469 Y79.718 E0.09004
G1 X75.495 Y78.519 E0.08718
G1 F1800.000 E-3.00000
T0
G1 X101.292 Y86.536 F4200.000
G1 F1800.000 E3.00000
G1 X87.828 Y100.000 F1200.000 E1.05222
G1 X93.007 Y105.180 E0.40480
G1 X83.607 Y105.180 E0.51947
G1 X83.607 Y86.536 E1.03027
G1 X101.224 Y86.536 E0.97352
G1 X102.383 Y86.084 F4200.000
G1 X88.467 Y100.000 F1200.000 E1.08755
G1 X94.099 Y105.632 E0.44013
G1 X83.155 Y105.632 E0.60477
G1 X83.155 Y86.084 E1.08023
G1 X102.315 Y86.084 E1.05882
G1 X101.992 Y86.310 F4200.000
G1 X100.366 Y86.998
G1 X100.232 Y86.864 F1200.000 E0.01051
G1 X99.592 Y86.864 E0.03537
G1 X100.046 Y87.318 E0.03552
G1 X99.727 Y87.638 E0.02501
G1 X98.953 Y86.864 E0.06053
G1 X98.313 Y86.864 E0.03537
G1 X99.407 Y87.958 E0.08554
G1 X99.087 Y88.277 E0.02501
G1 X97.673 Y86.864 E0.11056
G1 X97.033 Y86.864 E0.03537
G1 X98.767 Y88.597 E0.13557
G1 X98.447 Y88.917 E0.02501
G1 X96.394 Y86.864 E0.16058
G1 X95.754 Y86.864 E0.03537
G1 X98.127 Y89.237 E0.18559
G1 X97.807 Y89.557 E0.02501
G1 X95.114 Y86.864 E0.21061
G1 X94.474 Y86.864 E0.03537
G1 X97.488 Y89.877 E0.23562
G1 X97.168 Y90.197 E0.02501
G1 X93.835 Y86.864 E0.26063
G1 X93.195 Y86.864 E0.03537
G1 X96.848 Y90.517 E0.28564
G1 X96.528 Y90.836 E0.02501
G1 X92.555 Y86.864 E0.31066
G1 X91.915 Y86.864 E0.03537
G1 X96.208 Y91.156 E0.33567
G1 X95.888 Y91.476 E0.02501
G1 X91.276 Y86.864 E0.36068
G1 X90.636 Y86.864 E0.03537
G1 X95.568 Y91.796 E0.38570
G1 X95.248 Y92.116 E0.02501
G1 X89.996 Y86.864 E0.41071
G1 X89.356 Y86.864 E0.03537
G1 X94.929 Y92.436 E0.43572
G1 X94.609 Y92.756 E0.02501
G1 X88.717 Y86.864 E0.46073
G1 X88.077 Y86.864 E0.03537
G1 X94.289 Y93.076 E0.48575
G1 X93.969 Y93.395 E0.02501
G1 X87.437 Y86.864 E0.51076
G1 X86.797 Y86.864 E0.03537
G1 X93.649 Y93.715 E0.53577
G1 X93.329 Y94.035 E0.02501
G1 X86.158 Y86.864 E0.56078
G1 X85.518 Y86.864 E0.03537
G1 X93.009 Y94.355 E0.58580
G1 X92.689 Y94.675 E0.02501
G1 X84.878 Y86.864 E0.61081
G1 X84.238 Y86.864 E0.03537
G1 X92.370 Y94.995 E0.63582
G1 X92.050 Y95.315 E0.02501
G1 X83.935 Y87.200 E0.63456
G1 X83.935 Y87.839 E0.03537
G1 X91.730 Y95.635 E0.60955
G1 X91.410 Y95.954 E0.02501
G1 X83.935 Y88.479 E0.58453
G1 X83.935 Y89.119 E0.03537
G1 X91.090 Y96.274 E0.55952
G1 X90.770 Y96.594 E0.02501
G1 X83.935 Y89.759 E0.53451
G1 X83.935 Y90.398 E0.03537
G1 X90.450 Y96.914 E0.50950
G1 X90.130 Y97.234 E0.02501
G1 X83.935 Y91.038 E0.48448
G1 X83.935 Y91.678 E0.03537
G1 X89.811 Y97.554 E0.45947
G1 X89.491 Y97.874 E0.02501
G1 X83.935 Y92.318 E0.43446
G1 X83.935 Y92.957 E0.03537
G1 X89.171 Y98.193 E0.40944
G1 X88.851 Y98.513 E0.02501
G1 X83.935 Y93.597 E0.38443
G1 X83.935 Y94.237 E0.03537
G1 X88.531 Y98.833 E0.35942
G1 X88.211 Y99.153 E0.02501
G1 X83.935 Y94.877 E0.33441
G1 X83.935 Y95.516 E0.03537
G1 X87.891 Y99.473 E0.30939
G1 X87.572 Y99.793 E0.02501
G1 X83.935 Y96.156 E0.28438
G1 X83.935 Y96.796 E0.03537
G1 X91.991 Y104.852 E0.62997
G1 X91.351 Y104.852 E0.03537
G1 X83.935 Y97.436 E0.57994
G1 X83.935 Y98.075 E0.03537
G1 X90.711 Y104.852 E0.52992
G1 X90.072 Y104.852 E0.03537
G1 X83.935 Y98.715 E0.47989
G1 X83.935 Y99.355 E0.03537
G1 X89.432 Y104.852 E0.42987
G1 X88.792 Y104.852 E0.03537
G1 X83.935 Y99.995 E0.37984
G1 X83.935 Y100.634 E0.03537
G1 X88.153 Y104.852 E0.32981
G1 X87.513 Y104.852 E0.03537
G1 X83.935 Y101.274 E0.27979
G1 X83.935 Y101.914 E0.03537
G1 X86.873 Y104.852 E0.22976
G1 X86.233 Y104.852 E0.03537
G1 X83.935 Y102.553 E0.17974
G1 X83.935 Y103.193 E0.03537
G1 X85.594 Y104.852 E0.12971
G1 X84.954 Y104.852 E0.03537
G1 X83.935 Y103.833 E0.07969
G1 X83.935 Y104.473 E0.03537
G1 X84.314 Y104.852 E0.02966
G1 F1800.000 E-3.00000
T1
G1 X80.287 Y108.011 F4200.000
G1 X89.746 Y100.000
G1 F1800.000 E3.00000
G1 X102.929 Y86.817 F1200.000 E1.03027
G1 X116.112 Y100.000 E1.03026
G1 X102.929 Y113.183 E1.03027
G1 X89.794 Y100.048 E1.02652
G1 X89.371 Y100.264 F4200.000
G1 X89.106 Y100.000 F1200.000 E0.02066
G1 X102.929 Y86.178 E1.08023
G1 X116.751 Y100.000 E1.08023
G1 X102.929 Y113.822 E1.08023
G1 X89.419 Y100.312 E1.05582
G1 X89.468 Y99.903 F4200.000
G1 X102.993 Y112.656
G1 X90.273 Y99.936 F1200.000 E0.99464
G1 X90.593 Y99.616 E0.02501
G1 X103.313 Y112.336 E0.99464
G1 X103.633 Y112.016 E0.02501
G1 X90.913 Y99.296 E0.99464
G1 X91.233 Y98.976 E0.02501
G1 X103.953 Y111.696 E0.99464
G1 X104.273 Y111.376 E0.02501
G1 X91.553 Y98.656 E0.99464
G1 X91.873 Y98.336 E0.02501
G1 X104.593 Y111.056 E0.99464
G1 X104.912 Y110.736 E0.02501
G1 X92.193 Y98.017 E0.99464
G1 X92.513 Y97.697 E0.02501
G1 X105.232 Y110.416 E0.99464
G1 X105.552 Y110.097 E0.02501
G1 X92.832 Y97.377 E0.99464
G1 X93.152 Y97.057 E0.02501
G1 X105.872 Y109.777 E0.99464
G1 X106.192 Y109.457 E0.02501
G1 X93.472 Y96.737 E0.99464
G1 X93.792 Y96.417 E0.02501
G1 X106.512 Y109.137 E0.99464
G1 X106.832 Y108.817 E0.02501
G1 X94.112 Y96.097 E0.99464
G1 X94.432 Y95.777 E0.02501
G1 X107.151 Y108.497 E0.99464
G1 X107.471 Y108.177 E0.02501
G1 X94.752 Y95.458 E0.99464
G1 X95.071 Y95.138 E0.02501
G1 X107.791 Y107.857 E0.99463
G1 X108.111 Y107.538 E0.02501
G1 X95.391 Y94.818 E0.99463
G1 X95.711 Y94.498 E0.02501
G1 X108.431 Y107.218 E0.99463
G1 X108.751 Y106.898 E0.02501
G1 X96.031 Y94.178 E0.99463
G1 X96.351 Y93.858 E0.02501
G1 X109.071 Y106.578 E0.99463
G1 X109.391 Y106.258 E0.02501
G1 X96.671 Y93.538 E0.99463
G1 X96.991 Y93.218 E0.02501
G1 X109.710 Y105.938 E0.99463
G1 X110.030 Y105.618 E0.02501
G1 X97.311 Y92.899 E0.99463
G1 X97.630 Y92.579 E0.02501
G1 X110.350 Y105.298 E0.99463
G1 X110.670 Y104.979 E0.02501
G1 X97.950 Y92.259 E0.99463
G1 X98.270 Y91.939 E0.02501
G1 X110.990 Y104.659 E0.99463
G1 X111.310 Y104.339 E0.02501
G1 X98.590 Y91.619 E0.99463
G1 X98.910 Y91.299 E0.02501
G1 X111.630 Y104.019 E0.99463
G1 X111.950 Y103.699 E0.02501
G1 X99.230 Y90.979 E0.99463
G1 X99.550 Y90.660 E0.02501
G1 X112.269 Y103.379 E0.99463
G1 X112.589 Y103.059 E0.02501
G1 X99.870 Y90.340 E0.99463
G1 X100.189 Y90.020 E0.02501
G1 X112.909 Y102.739 E0.99463
G1 X113.229 Y102.420 E0.02501
G1 X100.509 Y89.700 E0.99463
G1 X100.829 Y89.380 E0.02501
G1 X113.549 Y102.100 E0.99463
G1 X113.869 Y101.780 E0.02501
G1 X101.149 Y89.060 E0.99463
G1 X101.469 Y88.740 E0.02501
G1 X114.189 Y101.460 E0.99463
G1 X114.508 Y101.140 E0.02501
G1 X101.789 Y88.420 E0.99463
G1 X102.109 Y88.101 E0.02501
G1 X114.828 Y100.820 E0.99463
G1 X115.148 Y100.500 E0.02501
G1 X102.429 Y87.781 E0.99463
G1 X102.748 Y87.461 E0.02501
G1 X115.468 Y100.180 E0.99463
M106 S247
M104 S237 T0 ; set temperature
M104 S237 T1 ; set temperature
M140 S100 ; set bed temperature
G1 Z0.550 F4200.000
G1 X102.929 Y86.674
G1 X116.255 Y100.000 F3600.000 E0.73874
G1 X102.929 Y113.326 E0.73874
G1 X89.603 Y100.000 E0.73874
G1 X102.888 Y86.715 E0.73648
G1 X102.929 Y86.130 F4200.000
G1 X116.799 Y100.000 F2520.000 E0.76891
G1 X102.929 Y113.870 E0.76891
G1 X89.059 Y100.000 E0.76892
G1 X102.888 Y86.171 E0.76665
G1 X103.029 Y86.502 F4200.000
G1 X102.950 Y87.090
G1 X90.019 Y100.021 F3240.000 E0.71688
G1 X90.292 Y100.294 E0.01511
G1 X103.223 Y87.363 E0.71688
G1 X103.495 Y87.635 E0.01511
G1 X90.564 Y100.566 E0.71688
G1 X90.836 Y100.839 E0.01511
G1 X103.768 Y87.907 E0.71688
G1 X104.040 Y88.180 E0.01511
G1 X91.109 Y101.111 E0.71688
G1 X91.381 Y101.384 E0.01511
G1 X104.313 Y88.452 E0.71688
G1 X104.585 Y88.725 E0.01511
G1 X91.654 Y101.656 E0.71688
G1 X91.926 Y101.929 E0.01511
G1 X104.858 Y88.997 E0.71688
G1 X105.130 Y89.270 E0.01511
G1 X92.199 Y102.201 E0.71688
G1 X92.471 Y102.474 E0.01511
G1 X105.403 Y89.542 E0.71688
G1 X105.675 Y89.815 E0.01511
G1 X92.744 Y102.746 E0.71688
G1 X93.016 Y103.019 E0.01511
G1 X105.948 Y90.087 E0.71688
G1 X106.220 Y90.360 E0.01511
G1 X93.289 Y103.291 E0.71688
G1 X93.561 Y103.564 E0.01511
G1 X106.493 Y90.632 E0.71688
G1 X106.765 Y90.905 E0.01511
G1 X93.834 Y103.836 E0.71688
G1 X94.106 Y104.109 E0.01511
G1 X107.038 Y91.177 E0.71688
G1 X107.310 Y91.450 E0.01511
G1 X94.379 Y104.381 E0.71688
G1 X94.651 Y104.654 E0.01511
G1 X107.583 Y91.722 E0.71688
G1 X107.855 Y91.995 E0.01511
G1 X94.924 Y104.926 E0.71688
G1 X95.196 Y105.199 E0.01511
G1 X108.128 Y92.267 E0.71688
G1 X108.400 Y92.540 E0.01511
G1 X95.469 Y105.471 E0.71688
G1 X95.741 Y105.744 E0.01511
G1 X108.672 Y92.812 E0.71688
G1 X108.945 Y93.085 E0.01511
G1 X96.014 Y106.016 E0.71688
G1 X96.286 Y106.288 E0.01511
G1 X109.217 Y93.357 E0.71688
G1 X109.490 Y93.630 E0.01511
G1 X96.559 Y106.561 E0.71688
G1 X96.831 Y106.833 E0.01511
G1 X109.762 Y93.902 E0.71688
G1 X110.035 Y94.175 E0.01511
G1 X97.104 Y107.106 E0.71688
G1 X97.376 Y107.378 E0.01511
G1 X110.307 Y94.447 E0.71688
G1 X110.580 Y94.720 E0.01511
G1 X97.649 Y107.651 E0.71688
G1 X97.921 Y107.923 E0.01511
G1 X110.852 Y94.992 E0.71688
G1 X111.125 Y95.265 E0.01511
G1 X98.193 Y108.196 E0.71688
G1 X98.466 Y108.468 E0.01511
G1 X111.397 Y95.537 E0.71688
G1 X111.670 Y95.809 E0.01511
G1 X98.738 Y108.741 E0.71688
G1 X99.011 Y109.013 E0.01511
G1 X111.942 Y96.082 E0.71688
G1 X112.215 Y96.354 E0.01511
G1 X99.283 Y109.286 E0.71688
G1 X99.556 Y109.558 E0.01511
G1 X112.487 Y96.627 E0.71688
G1 X112.760 Y96.899 E0.01511
G1 X99.828 Y109.831 E0.71688
G1 X100.101 Y110.103 E0.01511
G1 X113.032 Y97.172 E0.71688
G1 X113.305 Y97.444 E0.01511
G1 X100.373 Y110.376 E0.71688
G1 X100.646 Y110.648 E0.01511
G1 X113.577 Y97.717 E0.71688
G1 X113.850 Y97.989 E0.01511
G1 X100.918 Y110.921 E0.71688
G1 X101.191 Y111.193 E0.01511
G1 X114.122 Y98.262 E0.71688
G1 X114.395 Y98.534 E0.01511
G1 X101.463 Y111.466 E0.71688
G1 X101.736 Y111.738 E0.01511
G1 X114.667 Y98.807 E0.71688
G1 X114.940 Y99.079 E0.01511
G1 X102.008 Y112.011 E0.71688
G1 X102.281 Y112.283 E0.01511
G1 X115.212 Y99.352 E0.71688
G1 X115.485 Y99.624 E0.01511
G1 X102.553 Y112.556 E0.71688
G1 X102.826 Y112.828 E0.01511
G1 X115.757 Y99.897 E0.71688
G1 F1800.000 E-3.00000
T0
G1 X116.364 Y100.000 F4200.000
G1 X92.929 Y103.436
G1 X83.429 Y105.358
G1 X83.506 Y105.281
G1 F1800.000 E3.00000
G1 X83.506 Y86.435 F3600.000 E0.73874
G1 X101.535 Y86.435 E0.70674
G1 X87.970 Y100.000 E0.75200
G1 X93.251 Y105.281 E0.29274
G1 X83.564 Y105.281 E0.37973
G1 X83.121 Y105.665 F4200.000
G1 X83.121 Y86.050 F2520.000 E0.76891
G1 X102.464 Y86.050 E0.75825
G1 X88.515 Y100.000 E0.77333
G1 X94.180 Y105.665 E0.31408
G1 X83.179 Y105.665 E0.43124
G1 X83.314 Y105.332 F4200.000
G1 X92.350 Y104.774
G1 X92.123 Y105.002 F3240.000 E0.01261
G1 X92.078 Y104.502 E0.01969
G1 X91.578 Y105.002 E0.02774
G1 X91.033 Y105.002 E0.02139
G1 X91.806 Y104.229 E0.04286
G1 X91.533 Y103.957 E0.01513
G1 X90.488 Y105.002 E0.05799
G1 X89.943 Y105.002 E0.02139
G1 X91.261 Y103.685 E0.07312
G1 X90.988 Y103.412 E0.01513
G1 X89.398 Y105.002 E0.08824
G1 X88.853 Y105.002 E0.02139
G1 X90.716 Y103.140 E0.10337
G1 X90.443 Y102.867 E0.01513
G1 X88.308 Y105.002 E0.11849
G1 X87.764 Y105.002 E0.02139
G1 X90.171 Y102.595 E0.13362
G1 X89.898 Y102.322 E0.01513
G1 X87.219 Y105.002 E0.14874
G1 X86.674 Y105.002 E0.02139
G1 X89.626 Y102.050 E0.16387
G1 X89.353 Y101.777 E0.01513
G1 X86.129 Y105.002 E0.17899
G1 X85.584 Y105.002 E0.02139
G1 X89.081 Y101.505 E0.19412
G1 X88.808 Y101.232 E0.01513
